X:34
T:The Laird o' Drumblair
T: From the Harp and Claymore
C: J. Scott Skinner
R: strathspey
M:C
L:1/8
Z: Jason R. Fruit <jason@gmail.com>
U: N=!tenuto!
K:A
"^Fire and force."E | {G}[AA]2 c>A [EA,]<Ac>A | {A}(a2g>)a f>ae>c | (3"_Springing Bow."!<(!.d.e.f (3.e.f!<)!.g (3!>(!.a.e.d (3.c.B!>)!.A | (3.B.c.d (3.c.B.A (3.G.F.E (3.d.c.B |
{G}[AA]2 c>A [EA,]<A c>A | {A}(a2g>(a) f)>(ae)>c | (3.d.e.f (3.e.f.g (3.a.e.d (3.c.B.A | (3GFE (3dcB {G}([AA]2!>!A) ||
g | {g}"_A drone _ _ __ _ _ _ _ _ _ _ _ _ _ _ _ _ _ _ _ _  _ _  "a2 (e>Na) c>a A>a & A8 | (c/B/A) (e>Ng) a>A ca | "_B _ _ _ _ _ _ _ _ _ _ _ _ _ _ _ _ _ _ _ _ _ _ _ _ _ _ _ _ _ "x5 b x b & B8 & {^a}b2 f>b d>f B>f | (d/c/B f)>B {^a}b>B d<b |
{g}a2 e>a (c>>Na) A>>a | (c/B/A) e>g a>Ac>A |  (3"_Springing Bow."!<(!.d.e.f (3.e.f!<)!.g (3!>(!.a.e.d (3.c.B!>)!.A | (3GFE (3dcB {G}([AA]2[AE]) & x2 (3DCB, (A,2 A,) ||  !<(!y !<)!!>(!"^Fine."[AE]8 !>)!y !fermata!|]

